logos/rsa.svg

<?xml version="1.0" encoding="UTF-8" standalone="no"?>
<svg width="256px" height="129px" viewBox="0 0 256 129" version="1.1" xmlns="http://www.w3.org/2000/svg" xmlns:xlink="http://www.w3.org/1999/xlink" preserveAspectRatio="xMidYMid">
	<g>
		<path d="M0.860402367,0.539266272 L0.860402367,128.07271 L180.645112,128.07271 L195.488568,95.9939408 L210.569846,128.309018 L255.544047,128.309018 L255.544047,0.531692308 L0.860402367,0.539266272" fill="#D9222A"></path>
		<path d="M232.710059,95.9666746 L201.814343,25.4364024 L201.826462,25.431858 L201.814343,25.431858 L201.814343,25.424284 L201.809799,25.431858 L189.40213,25.431858 L159.203219,95.9939408 L172.510675,95.9939408 L195.500686,40.660071 L219.475314,95.9939408 L232.710059,95.9666746" fill="#FFFFFF"></path>
		<path d="M71.2906982,65.7677633 C80.9884024,62.1458935 85.6266982,54.1371834 85.5146036,45.9769941 C85.3419172,33.5905325 75.6260355,24.9440947 61.8838343,24.9440947 L32.168142,24.9440947 L32.168142,95.8788166 L42.9898225,95.8788166 L42.9898225,35.3022485 L61.2673136,35.3022485 C67.3931361,35.3022485 73.9718817,38.4893728 74.079432,46.1269586 C74.1718343,52.9298935 69.0942485,57.1788876 60.4902249,57.5454675 L60.3220828,57.5530414 L53.7660592,57.6090888 L75.5957396,95.9939408 L88.3790769,95.9666746 C88.3790769,95.9666746 77.8770178,77.4104615 71.2906982,65.7677633" fill="#FFFFFF"></path>
		<path d="M100.183858,43.2609704 C100.183858,57.3864142 114.201751,61.3718343 125.100686,64.4438343 C136.454059,67.6536805 140.409183,71.2725207 140.409183,76.7575858 C140.409183,85.9069349 131.129562,87.3353846 125.390012,87.3353846 C117.508544,87.3353846 111.007053,85.1343905 104.644923,81.2065325 L99.2159053,90.4058698 C107.242793,95.3546982 115.562036,97.6617278 125.390012,97.6617278 C141.807337,97.6617278 152.713846,89.1561657 152.713846,75.9911006 C152.713846,61.2885207 139.445775,57.219787 128.29084,54.0659882 C116.928379,50.8546272 112.485491,48.1401183 112.485491,42.6520237 C112.485491,34.3418698 122.657325,33.5344852 126.300402,33.5344852 C132.030864,33.5344852 139.315503,35.4537278 143.629633,37.6804734 L148.196734,28.6886627 C142.379929,25.680284 133.456284,23.6671243 125.995929,23.6671243 C110.122414,23.6671243 100.183858,30.8942012 100.183858,43.2609704" fill="#FFFFFF"></path>
	</g>
</svg>

<svg preserveAspectRatio="xMidYMid" viewBox="0 0 256 129" xmlns="http://www.w3.org/2000/svg">
  <path fill="#D9222A" d="M.86.54v127.533h179.785l14.844-32.08 15.08 32.316h44.975V.532L.86.539"/>
  <path fill="#FFF" d="m232.71 95.967-30.896-70.53.012-.005h-.012v-.008l-.004.008h-12.408l-30.199 70.562h13.308L195.5 40.66l23.974 55.334 13.235-.027"/>
  <path fill="#FFF" d="M71.29 65.768c9.698-3.622 14.337-11.63 14.225-19.791-.173-12.386-9.889-21.033-23.631-21.033H32.168V95.88H42.99V35.302h18.277c6.126 0 12.705 3.187 12.812 10.825.093 6.803-4.985 11.052-13.589 11.418l-.168.008-6.556.056 21.83 38.385 12.783-.027s-10.502-18.557-17.088-30.2"/>
  <path fill="#FFF" d="M100.184 43.261c0 14.125 14.018 18.11 24.917 21.183 11.353 3.21 15.308 6.829 15.308 12.314 0 9.149-9.28 10.577-15.019 10.577-7.881 0-14.383-2.2-20.745-6.128l-5.43 9.199c8.028 4.949 16.347 7.256 26.175 7.256 16.417 0 27.324-8.506 27.324-21.67 0-14.703-13.268-18.772-24.423-21.926-11.363-3.211-15.806-5.926-15.806-11.414 0-8.31 10.172-9.118 13.815-9.118 5.73 0 13.016 1.92 17.33 4.146l4.567-8.991c-5.817-3.009-14.74-5.022-22.201-5.022-15.874 0-25.812 7.227-25.812 19.594"/>
</svg>
